src/lib/packages/icons/src/assets/line/alarm-edit.svg

<svg width="24" height="24" viewBox="0 0 24 24" fill="none" xmlns="http://www.w3.org/2000/svg">
<path d="M17.47 3.53005C17.177 3.23705 17.177 2.76202 17.47 2.46902C17.763 2.17602 18.238 2.17602 18.531 2.46902L20.531 4.46902C20.824 4.76202 20.824 5.23705 20.531 5.53005C20.385 5.67605 20.193 5.75002 20.001 5.75002C19.809 5.75002 19.617 5.67705 19.471 5.53005L17.47 3.53005ZM4.53005 3.53005C4.82305 3.23705 4.82305 2.76202 4.53005 2.46902C4.23705 2.17602 3.76202 2.17602 3.46902 2.46902L1.46902 4.46902C1.17602 4.76202 1.17602 5.23705 1.46902 5.53005C1.61502 5.67605 1.80705 5.75002 1.99905 5.75002C2.19105 5.75002 2.38308 5.67705 2.52908 5.53005L4.53005 3.53005ZM11 19.25C7.00202 19.25 3.75002 15.998 3.75002 12C3.75002 8.00202 7.00202 4.75002 11 4.75002C14.653 4.75002 17.7471 7.47707 18.1961 11.0921C18.2471 11.5041 18.636 11.793 19.033 11.744C19.444 11.693 19.7351 11.319 19.6841 10.908C19.1421 6.54198 15.409 3.25002 10.999 3.25002C6.17405 3.25002 2.24905 7.17502 2.24905 12C2.24905 14.907 3.67897 17.479 5.86697 19.072L4.46902 20.47C4.17602 20.763 4.17602 21.238 4.46902 21.531C4.61502 21.677 4.80705 21.751 4.99905 21.751C5.19105 21.751 5.38308 21.678 5.52908 21.531L7.19314 19.867C8.34614 20.427 9.63405 20.75 10.999 20.75C11.413 20.75 11.749 20.414 11.749 20C11.749 19.586 11.414 19.25 11 19.25ZM11 7.29006C10.586 7.29006 10.25 7.62606 10.25 8.04006V12.0401C10.25 12.4541 10.586 12.7901 11 12.7901C11.414 12.7901 11.75 12.4541 11.75 12.0401V8.04006C11.75 7.62606 11.414 7.29006 11 7.29006ZM22.75 15.8811C22.749 16.3191 22.5781 16.7311 22.2681 17.0401L16.752 22.531C16.611 22.671 16.4209 22.749 16.2229 22.749H14C13.586 22.749 13.25 22.413 13.25 21.999V19.7771C13.25 19.5791 13.328 19.3881 13.469 19.2481L18.96 13.732C19.269 13.421 19.6799 13.25 20.1179 13.25C20.1189 13.25 20.1201 13.25 20.1211 13.25C20.5591 13.25 20.9701 13.42 21.2791 13.73L22.2691 14.72C22.5801 15.03 22.75 15.4431 22.75 15.8811ZM20.023 14.791L19.388 15.429L20.572 16.6121L21.209 15.9781C21.243 15.9451 21.25 15.9059 21.25 15.8799C21.25 15.8539 21.243 15.815 21.209 15.781L20.219 14.791C20.185 14.757 20.1471 14.75 20.1211 14.75H20.1201C20.0951 14.75 20.057 14.757 20.023 14.791ZM19.5091 17.6699L18.3301 16.491L14.749 20.0869V21.25H15.9121L19.5091 17.6699Z" fill="currentColor"/>
</svg>

<svg xmlns="http://www.w3.org/2000/svg" width="24" height="24" fill="none"><path fill="currentColor" d="M17.47 3.53a.75.75 0 0 1 1.061-1.061l2 2a.75.75 0 0 1-1.06 1.061l-2.001-2Zm-12.94 0a.75.75 0 1 0-1.061-1.061l-2 2a.75.75 0 0 0 1.06 1.061l2.001-2ZM11 19.25c-3.998 0-7.25-3.252-7.25-7.25S7.002 4.75 11 4.75c3.653 0 6.747 2.727 7.196 6.342a.76.76 0 0 0 .837.652.749.749 0 0 0 .651-.836C19.142 6.542 15.41 3.25 11 3.25c-4.825 0-8.75 3.925-8.75 8.75 0 2.907 1.43 5.479 3.618 7.072L4.469 20.47a.75.75 0 0 0 1.06 1.061l1.664-1.664a8.684 8.684 0 0 0 3.806.883.75.75 0 0 0 .001-1.5Zm0-11.96a.75.75 0 0 0-.75.75v4a.75.75 0 0 0 1.5 0v-4a.75.75 0 0 0-.75-.75Zm11.75 8.591c-.001.438-.172.85-.482 1.16l-5.516 5.49a.75.75 0 0 1-.53.218H14a.75.75 0 0 1-.75-.75v-2.222c0-.198.078-.389.219-.529l5.491-5.516a1.62 1.62 0 0 1 1.158-.482h.003c.438 0 .85.17 1.158.48l.99.99c.311.31.481.723.481 1.161Zm-2.727-1.09-.635.638 1.184 1.183.637-.634a.135.135 0 0 0 .041-.098.138.138 0 0 0-.041-.099l-.99-.99a.135.135 0 0 0-.196 0Zm-.514 2.879-1.179-1.18-3.581 3.596v1.163h1.163l3.597-3.58Z"/></svg>
